; generated by PrusaSlicer 2.4.0+arm64 on 2022-02-23 at 20:05:40 UTC

; 

; external perimeters extrusion width = 0.60mm
; perimeters extrusion width = 0.50mm
; infill extrusion width = 0.50mm
; solid infill extrusion width = 0.50mm
; top infill extrusion width = 0.45mm
; first layer extrusion width = 0.42mm

M73 P0 R16
M73 Q0 S16
M201 X1000 Y1000 Z200 E5000 ; sets maximum accelerations, mm/sec^2
M203 X200 Y200 Z12 E120 ; sets maximum feedrates, mm/sec
M204 P1250 R1250 T1250 ; sets acceleration (P, T) and retract acceleration (R), mm/sec^2
M205 X8.00 Y8.00 Z0.40 E4.50 ; sets the jerk limits, mm/sec
M205 S0 T0 ; sets the minimum extruding and travel feed rate, mm/sec
M107
;TYPE:Custom
M862.3 P "MK3S" ; printer model check
M862.1 P0.4 ; nozzle diameter check
M115 U3.10.0 ; tell printer latest fw version
G90 ; use absolute coordinates
M83 ; extruder relative mode
M104 S215 ; set extruder temp
M140 S60 ; set bed temp
M190 S60 ; wait for bed temp
M109 S215 ; wait for extruder temp
G28 W ; home all without mesh bed level
G80 ; mesh bed leveling
G1 Z0.2 F720
G1 Y-3 F1000 ; go outside print area
G92 E0
G1 X60 E9 F1000 ; intro line
G1 X100 E12.5 F1000 ; intro line
G92 E0
M221 S95

; Don't change E values below. Excessive value can damage the printer.

M907 E538 ; set extruder motor current
G21 ; set units to millimeters
G90 ; use absolute coordinates
M83 ; use relative distances for extrusion
M900 K0.05 ; Filament gcode LA 1.5
M900 K30 ; Filament gcode LA 1.0
M107
;LAYER_CHANGE
;Z:0.2
;HEIGHT:0.2
;BEFORE_LAYER_CHANGE
G92 E0.0
;0.2


G1 E-.8 F2100
G1 Z.4 F720
;AFTER_LAYER_CHANGE
;0.2
G1 X110.316 Y93.335 F10800
G1 Z.2 F720
G1 E.8 F2100
M204 S800
;TYPE:Skirt/Brim
;WIDTH:0.42
G1 F1200
G1 X111.701 Y91.778 E.06536
G1 X113.251 Y90.383 E.06536
G1 X114.817 Y89.252 E.06056
G1 X116.627 Y88.22 E.06536
G1 X117.714 Y87.72 E.03749
G1 X119.53 Y87.062 E.06056
G1 X121.554 Y86.566 E.06535
G1 X123.621 Y86.298 E.06536
G1 X124.831 Y86.248 E.03795
G1 X126.898 Y86.343 E.06489
G1 X128.807 Y86.637 E.06056
G1 X130.821 Y87.173 E.06535
G1 X131.946 Y87.58 E.03749
G1 X133.836 Y88.459 E.06535
G1 X135.49 Y89.455 E.06056
G1 X137.151 Y90.716 E.06536
G1 X138.036 Y91.519 E.03749
G1 X139.452 Y93.049 E.06536
G1 X140.605 Y94.599 E.06056
G1 X141.282 Y95.699 E.04051
G1 X142.177 Y97.474 E.06233
G1 X142.906 Y99.427 E.06536
G1 X143.384 Y101.298 E.06056
G1 X143.68 Y103.332 E.06445
G1 X143.752 Y105.156 E.05721
G1 X143.674 Y106.727 E.04932
G1 X143.384 Y108.702 E.06259
G1 X142.86 Y110.719 E.06535
M73 Q1 S16
G1 X142.177 Y112.526 E.06056
G1 X141.655 Y113.618 E.03795
G1 X140.605 Y115.401 E.06489
M73 P1 R16
G1 X139.452 Y116.951 E.06056
G1 X138.036 Y118.481 E.06536
G1 X137.151 Y119.284 E.03749
G1 X135.49 Y120.545 E.06536
G1 X133.836 Y121.541 E.06056
G1 X131.946 Y122.42 E.06536
G1 X130.821 Y122.827 E.03749
G1 X128.807 Y123.363 E.06536
G1 X126.746 Y123.672 E.06535
G1 X124.816 Y123.752 E.06057
G1 X123.621 Y123.703 E.03749
G1 X121.554 Y123.434 E.06535
G1 X119.53 Y122.938 E.06535
G1 X117.714 Y122.28 E.06056
G1 X116.627 Y121.78 E.03749
G1 X114.817 Y120.748 E.06535
G1 X113.132 Y119.52 E.06536
G1 X111.701 Y118.222 E.06056
G1 X110.316 Y116.665 E.06536
G1 X109.603 Y115.706 E.03749
G1 X108.583 Y114.065 E.06056
G1 X107.679 Y112.187 E.06536
G1 X106.988 Y110.22 E.06535
G1 X106.692 Y109.062 E.03749
G1 X106.361 Y107.075 E.06316
G1 X106.246 Y104.983 E.0657
G1 X106.362 Y102.92 E.06479
G1 X106.692 Y100.938 E.06298
G1 X106.988 Y99.78 E.03749
G1 X107.679 Y97.813 E.06536
G1 X108.583 Y95.935 E.06535
G1 X109.603 Y94.294 E.06057
G1 X110.28 Y93.383 E.03561
M204 S1000
G1 X110.583 Y93.608 F10800
M204 S800
G1 F1200
G1 X111.962 Y92.05 E.06526
G1 X113.378 Y90.766 E.0599
G1 X115.029 Y89.564 E.06404
G1 X116.03 Y88.962 E.03664
G1 X117.852 Y88.071 E.06358
G1 X119.775 Y87.382 E.06404
G1 X121.632 Y86.935 E.0599
G1 X123.658 Y86.673 E.06404
G1 X124.825 Y86.625 E.03664
G1 X126.851 Y86.717 E.06358
G1 X128.739 Y87.008 E.05991
G1 X130.713 Y87.534 E.06404
G1 X131.798 Y87.927 E.03618
G1 X133.65 Y88.787 E.06404
G1 X135.287 Y89.773 E.0599
G1 X136.913 Y91.009 E.06404
G1 X137.768 Y91.784 E.03617
G1 X139.156 Y93.282 E.06404
G1 X140.296 Y94.815 E.0599
G1 X140.951 Y95.88 E.03919
G1 X141.828 Y97.617 E.06102
G1 X142.504 Y99.404 E.0599
G1 X143.016 Y101.381 E.06404
G1 X143.304 Y103.367 E.06292
G1 X143.375 Y105.156 E.05611
G1 X143.298 Y106.688 E.04811
G1 X143.016 Y108.619 E.06117
G1 X142.504 Y110.596 E.06404
G1 X141.828 Y112.383 E.0599
G1 X141.324 Y113.437 E.03664
G1 X140.296 Y115.185 E.06358
G1 X139.071 Y116.819 E.06404
G1 X137.768 Y118.216 E.0599
G1 X136.913 Y118.991 E.03618
G1 X135.287 Y120.227 E.06404
G1 X133.534 Y121.275 E.06404
G1 X131.798 Y122.073 E.0599
G1 X130.713 Y122.466 E.03618
G1 X128.739 Y122.992 E.06404
G1 X126.72 Y123.296 E.06404
G1 X124.811 Y123.375 E.05991
G1 X123.658 Y123.327 E.03617
G1 X121.632 Y123.065 E.06404
G1 X119.648 Y122.58 E.06404
G1 X117.852 Y121.929 E.05991
G1 X116.804 Y121.447 E.03618
G1 X115.029 Y120.436 E.06404
G1 X113.378 Y119.234 E.06404
G1 X111.962 Y117.95 E.0599
G1 X110.606 Y116.423 E.06404
G1 X109.917 Y115.498 E.03617
G1 X108.909 Y113.875 E.0599
G1 X108.023 Y112.034 E.06404
G1 X107.348 Y110.107 E.06404
G1 X107.062 Y108.989 E.03618
G1 X106.736 Y107.034 E.06213
G1 X106.623 Y104.985 E.06435
G1 X106.736 Y102.962 E.06354
G1 X107.062 Y101.011 E.06201
G1 X107.348 Y99.893 E.03618
G1 X108.023 Y97.966 E.06404
G1 X108.909 Y96.125 E.06404
G1 X109.917 Y94.502 E.05991
G1 X110.547 Y93.656 E.03307
M204 S1000
; printing object better gyroscope v1.stl id:0 copy 0
;WIPE_START
G1 F8640
G1 X111.962 Y92.05 E-.49441
G1 X112.814 Y91.277 E-.26559
;WIPE_END
G1 E-.04 F2100
G1 Z.6 F720
G1 X114.465 Y96.115 F10800
G1 Z.2 F720
G1 E.8 F2100
M204 S800
;TYPE:Perimeter
G1 F1200
G1 X114.811 Y95.711 E.01665
G1 X115.402 Y95.102 E.02663
G1 X116.015 Y94.543 E.026
G1 X116.691 Y93.998 E.02724
G1 X117.384 Y93.507 E.02664
G1 X118.106 Y93.06 E.02662
G1 X118.854 Y92.658 E.02663
M73 Q2 S16
G1 X119.626 Y92.303 E.02663
G1 X120.418 Y91.996 E.02662
G1 X121.227 Y91.739 E.02663
G1 X122.05 Y91.532 E.02663
G1 X122.885 Y91.376 E.02663
G1 X123.728 Y91.271 E.02663
G1 X124.575 Y91.219 E.02662
M73 P2 R16
G1 X125.425 Y91.219 E.02663
G1 X126.272 Y91.271 E.02662
G1 X127.115 Y91.376 E.02663
G1 X127.95 Y91.532 E.02663
G1 X128.773 Y91.739 E.02662
G1 X129.582 Y91.996 E.02663
G1 X130.374 Y92.303 E.02662
G1 X131.146 Y92.658 E.02662
G1 X131.894 Y93.06 E.02663
G1 X132.616 Y93.507 E.02663
G1 X133.309 Y93.997 E.02663
G1 X133.97 Y94.53 E.02662
G1 X134.598 Y95.102 E.02662
G1 X135.189 Y95.711 E.02663
G1 X135.729 Y96.341 E.026
G1 X136.253 Y97.034 E.02724
G1 X136.722 Y97.742 E.02664
G1 X137.137 Y98.46 E.026
G1 X137.525 Y99.237 E.02724
G1 X137.856 Y100.019 E.02664
G1 X138.139 Y100.82 E.02663
G1 X138.371 Y101.637 E.02662
G1 X138.552 Y102.465 E.02657
G1 X138.681 Y103.289 E.02615
G1 X138.763 Y104.198 E.0286
G1 X138.787 Y105 E.02518
G1 X138.761 Y105.846 E.02652
G1 X138.683 Y106.69 E.02659
G1 X138.557 Y107.508 E.02596
G1 X138.371 Y108.363 E.02741
G1 X138.139 Y109.18 E.02664
G1 X137.856 Y109.981 E.02663
G1 X137.525 Y110.763 E.02662
G1 X137.147 Y111.523 E.02663
G1 X136.722 Y112.258 E.02663
G1 X136.253 Y112.966 E.02662
G1 X135.742 Y113.644 E.02663
G1 X135.189 Y114.289 E.02662
G1 X134.598 Y114.898 E.02663
G1 X133.97 Y115.47 E.02662
G1 X133.309 Y116.003 E.02662
G1 X132.616 Y116.493 E.02663
G1 X131.894 Y116.94 E.02663
G1 X131.146 Y117.342 E.02663
G1 X130.374 Y117.697 E.02662
G1 X129.582 Y118.004 E.02663
G1 X128.773 Y118.261 E.02663
G1 X127.95 Y118.468 E.02662
G1 X127.115 Y118.624 E.02663
G1 X126.272 Y118.729 E.02663
G1 X125.425 Y118.781 E.02662
G1 X124.575 Y118.781 E.02663
G1 X123.728 Y118.729 E.02663
G1 X122.885 Y118.624 E.02663
G1 X122.05 Y118.468 E.02663
G1 X121.227 Y118.261 E.02662
G1 X120.418 Y118.004 E.02663
G1 X120.028 Y117.853 E.0131
G1 X119.626 Y117.697 E.01352
G1 X118.854 Y117.342 E.02662
G1 X118.106 Y116.94 E.02663
G1 X117.384 Y116.493 E.02662
G1 X116.691 Y116.003 E.02663
G1 X116.03 Y115.47 E.02663
G1 X115.402 Y114.898 E.02662
G1 X114.811 Y114.289 E.02663
G1 X114.271 Y113.659 E.026
G1 X113.747 Y112.966 E.02724
G1 X113.278 Y112.258 E.02664
G1 X112.853 Y111.523 E.02663
G1 X112.475 Y110.763 E.02663
G1 X112.144 Y109.981 E.02663
G1 X111.861 Y109.18 E.02663
G1 X111.629 Y108.363 E.02662
G1 X111.448 Y107.535 E.02657
G1 X111.319 Y106.711 E.02615
G1 X111.237 Y105.802 E.0286
G1 X111.213 Y105 E.02518
G1 X111.239 Y104.154 E.02652
G1 X111.317 Y103.31 E.02659
G1 X111.443 Y102.492 E.02596
G1 X111.629 Y101.637 E.02741
G1 X111.861 Y100.82 E.02664
G1 X112.144 Y100.019 E.02663
G1 X112.475 Y99.237 E.02663
G1 X112.844 Y98.495 E.026
G1 X113.277 Y97.742 E.02724
G1 X113.747 Y97.034 E.02664
G1 X114.426 Y96.16 E.0347
M204 S1000
G1 X114.51 Y96.649 F10800
M204 S800
;TYPE:External perimeter
G1 F1200
G1 X115.09 Y95.966 E.0281
G1 X115.665 Y95.373 E.0259
G1 X116.261 Y94.829 E.02528
G1 X116.918 Y94.299 E.02651
G1 X117.593 Y93.821 E.0259
G1 X118.295 Y93.386 E.0259
G1 X119.023 Y92.996 E.0259
G1 X119.773 Y92.65 E.0259
G1 X120.543 Y92.352 E.0259
G1 X121.33 Y92.102 E.0259
G1 X122.131 Y91.9 E.0259
G1 X122.943 Y91.749 E.0259
G1 X123.763 Y91.647 E.0259
G1 X124.587 Y91.596 E.0259
G1 X125.413 Y91.596 E.0259
G1 X126.237 Y91.647 E.0259
G1 X127.057 Y91.749 E.0259
G1 X127.869 Y91.9 E.0259
G1 X128.67 Y92.102 E.0259
G1 X129.457 Y92.352 E.0259
G1 X130.227 Y92.65 E.0259
G1 X130.977 Y92.996 E.0259
G1 X131.705 Y93.386 E.0259
G1 X132.407 Y93.821 E.0259
G1 X133.081 Y94.298 E.0259
G1 X133.725 Y94.816 E.0259
G1 X134.335 Y95.373 E.0259
G1 X134.91 Y95.966 E.0259
G1 X135.435 Y96.578 E.02528
G1 X135.945 Y97.252 E.02651
G1 X136.402 Y97.94 E.0259
G1 X136.805 Y98.639 E.02528
G1 X137.183 Y99.395 E.02651
G1 X137.505 Y100.156 E.0259
G1 X137.779 Y100.935 E.0259
G1 X138.005 Y101.729 E.0259
G1 X138.182 Y102.534 E.02585
G1 X138.306 Y103.335 E.02541
G1 X138.387 Y104.22 E.02787
G1 X138.41 Y105 E.02446
G1 X138.385 Y105.823 E.0258
G1 X138.309 Y106.644 E.02586
G1 X138.186 Y107.439 E.02524
G1 X138.005 Y108.271 E.02668
G1 X137.779 Y109.065 E.0259
G1 X137.505 Y109.844 E.0259
G1 X137.183 Y110.605 E.0259
G1 X136.815 Y111.344 E.0259
G1 X136.402 Y112.06 E.0259
G1 X135.945 Y112.748 E.0259
G1 X135.448 Y113.407 E.0259
G1 X134.91 Y114.034 E.0259
G1 X134.335 Y114.627 E.0259
G1 X133.725 Y115.184 E.0259
G1 X133.081 Y115.702 E.0259
G1 X132.407 Y116.179 E.0259
G1 X131.705 Y116.614 E.0259
G1 X130.977 Y117.004 E.0259
G1 X130.227 Y117.35 E.0259
G1 X129.457 Y117.648 E.0259
G1 X128.67 Y117.898 E.0259
G1 X127.869 Y118.1 E.0259
G1 X127.057 Y118.251 E.0259
G1 X126.237 Y118.353 E.0259
G1 X125.413 Y118.404 E.0259
G1 X124.587 Y118.404 E.0259
G1 X123.763 Y118.353 E.0259
G1 X122.943 Y118.251 E.0259
G1 X122.131 Y118.1 E.0259
G1 X121.33 Y117.898 E.0259
G1 X120.543 Y117.648 E.0259
G1 X120.164 Y117.501 E.01274
G1 X119.773 Y117.35 E.01316
G1 X119.023 Y117.004 E.0259
G1 X118.295 Y116.614 E.0259
G1 X117.593 Y116.179 E.0259
G1 X116.919 Y115.702 E.0259
G1 X116.275 Y115.184 E.0259
G1 X115.665 Y114.627 E.0259
G1 X115.09 Y114.034 E.0259
G1 X114.565 Y113.422 E.02528
G1 X114.055 Y112.748 E.02651
G1 X113.598 Y112.06 E.0259
G1 X113.185 Y111.344 E.0259
G1 X112.817 Y110.605 E.0259
G1 X112.495 Y109.844 E.0259
G1 X112.221 Y109.065 E.0259
G1 X111.995 Y108.271 E.0259
G1 X111.818 Y107.466 E.02585
G1 X111.694 Y106.665 E.02541
G1 X111.613 Y105.78 E.02787
G1 X111.59 Y105 E.02446
G1 X111.615 Y104.177 E.0258
G1 X111.691 Y103.356 E.02586
G1 X111.814 Y102.561 E.02524
G1 X111.995 Y101.729 E.02668
G1 X112.221 Y100.935 E.0259
G1 X112.495 Y100.156 E.0259
G1 X112.817 Y99.395 E.0259
G1 X113.177 Y98.673 E.02528
G1 X113.598 Y97.941 E.02651
G1 X114.055 Y97.252 E.0259
G1 X114.474 Y96.697 E.02181
M204 S1000
G1 X114.364 Y96.276 F10800
;WIPE_START
G1 F8640
G1 X115.09 Y95.966 E-.22075
G1 X115.665 Y95.373 E-.19072
G1 X116.261 Y94.829 E-.18617
G1 X116.808 Y94.388 E-.16236
;WIPE_END
G1 E-.04 F2100
G1 Z.6 F720
G1 X113.382 Y95.188 F10800
G1 Z.2 F720
G1 E.8 F2100
M204 S800
;TYPE:Perimeter
G1 F1200
G1 X113.592 Y94.937 E.01025
G1 X114.169 Y94.318 E.02652
G1 X114.779 Y93.733 E.02652
G1 X115.421 Y93.182 E.02652
G1 X116.093 Y92.668 E.02652
G1 X116.792 Y92.192 E.02652
G1 X117.516 Y91.756 E.02652
G1 X118.264 Y91.36 E.02652
G1 X119.032 Y91.007 E.02652
G1 X119.819 Y90.697 E.02652
G1 X120.622 Y90.431 E.02652
G1 X121.438 Y90.21 E.02652
G1 X122.266 Y90.035 E.02652
G1 X123.102 Y89.906 E.02652
G1 X123.943 Y89.824 E.02651
G1 X124.798 Y89.789 E.02681
G1 X125.634 Y89.801 E.02623
G1 X126.478 Y89.859 E.02652
G1 X127.317 Y89.965 E.02652
G1 X128.149 Y90.117 E.02652
M73 P2 R15
G1 X128.971 Y90.315 E.02652
G1 X129.781 Y90.558 E.02652
G1 X130.577 Y90.846 E.02652
G1 X131.354 Y91.178 E.02652
G1 X132.113 Y91.553 E.02652
G1 X132.849 Y91.969 E.02652
G1 X133.561 Y92.425 E.02652
G1 X134.247 Y92.92 E.02652
M73 Q3 S16
G1 X134.904 Y93.453 E.02652
G1 X135.53 Y94.021 E.02652
G1 X136.124 Y94.623 E.02652
G1 X136.684 Y95.258 E.02652
G1 X137.207 Y95.922 E.02652
G1 X137.693 Y96.614 E.02652
G1 X138.139 Y97.333 E.02652
M73 P3 R15
G1 X138.545 Y98.075 E.02652
G1 X138.909 Y98.838 E.02652
G1 X139.23 Y99.621 E.02652
G1 X139.507 Y100.42 E.02652
G1 X139.739 Y101.233 E.02652
G1 X139.925 Y102.058 E.02652
G1 X140.066 Y102.893 E.02656
G1 X140.159 Y103.728 E.02634
G1 X140.207 Y104.582 E.02681
G1 X140.207 Y105.384 E.02513
G1 X140.158 Y106.281 E.02819
G1 X140.066 Y107.106 E.02601
G1 X139.925 Y107.942 E.02658
G1 X139.739 Y108.767 E.02652
G1 X139.507 Y109.58 E.02652
G1 X139.23 Y110.379 E.02652
G1 X138.909 Y111.162 E.02652
G1 X138.545 Y111.925 E.02652
G1 X138.139 Y112.667 E.02652
G1 X137.693 Y113.386 E.02652
G1 X137.207 Y114.078 E.02652
G1 X136.684 Y114.742 E.02652
G1 X136.124 Y115.377 E.02652
G1 X135.53 Y115.979 E.02652
G1 X134.904 Y116.547 E.02652
G1 X134.247 Y117.08 E.02652
G1 X133.561 Y117.575 E.02652
G1 X132.849 Y118.031 E.02652
G1 X132.113 Y118.447 E.02652
G1 X131.354 Y118.822 E.02652
G1 X130.577 Y119.154 E.02652
G1 X129.781 Y119.442 E.02652
G1 X128.972 Y119.685 E.02651
G1 X128.14 Y119.885 E.02681
G1 X127.317 Y120.035 E.02623
G1 X126.478 Y120.141 E.02652
G1 X125.634 Y120.199 E.02652
G1 X124.789 Y120.211 E.02652
M73 Q3 S15
G1 X123.944 Y120.176 E.02652
G1 X123.102 Y120.094 E.02652
G1 X122.266 Y119.965 E.02652
G1 X121.438 Y119.79 E.02652
G1 X120.622 Y119.569 E.02652
G1 X119.819 Y119.303 E.02652
G1 X119.032 Y118.993 E.02652
G1 X118.264 Y118.64 E.02652
G1 X117.516 Y118.244 E.02652
G1 X116.792 Y117.808 E.02652
G1 X116.092 Y117.332 E.02652
G1 X115.421 Y116.818 E.02652
G1 X114.779 Y116.267 E.02652
G1 X114.169 Y115.682 E.02652
G1 X113.592 Y115.063 E.02652
G1 X113.05 Y114.414 E.02652
G1 X112.545 Y113.735 E.02652
G1 X112.079 Y113.03 E.02652
G1 X111.653 Y112.299 E.02652
G1 X111.268 Y111.546 E.02652
G1 X110.925 Y110.773 E.02652
G1 X110.626 Y109.982 E.02652
G1 X110.372 Y109.175 E.02652
G1 X110.162 Y108.356 E.02652
G1 X109.998 Y107.525 E.02654
G1 X109.881 Y106.688 E.02651
G1 X109.811 Y105.849 E.02638
G1 X109.787 Y105 E.02664
G1 X109.811 Y104.151 E.02664
G1 X109.881 Y103.312 E.02638
G1 X109.998 Y102.475 E.02651
G1 X110.162 Y101.644 E.02654
G1 X110.372 Y100.825 E.02652
G1 X110.626 Y100.018 E.02652
G1 X110.925 Y99.227 E.02652
G1 X111.268 Y98.454 E.02652
G1 X111.653 Y97.701 E.02651
G1 X112.084 Y96.963 E.02681
G1 X112.545 Y96.265 E.02623
G1 X113.05 Y95.586 E.02652
G1 X113.344 Y95.234 E.01438
M204 S1000
G1 X112.836 Y95.253 F10800
M204 S800
;TYPE:External perimeter
G1 F1200
G1 X113.309 Y94.687 E.02312
G1 X113.9 Y94.053 E.02718
G1 X114.526 Y93.453 E.02718
G1 X115.183 Y92.889 E.02717
G1 X115.872 Y92.362 E.02718
G1 X116.588 Y91.874 E.02718
G1 X117.331 Y91.427 E.02718
G1 X118.097 Y91.022 E.02718
G1 X118.884 Y90.66 E.02718
G1 X119.691 Y90.342 E.02718
G1 X120.513 Y90.07 E.02718
G1 X121.35 Y89.843 E.02718
G1 X122.198 Y89.664 E.02718
G1 X123.055 Y89.532 E.02718
G1 X123.917 Y89.448 E.02717
G1 X124.793 Y89.412 E.02747
G1 X125.65 Y89.424 E.02689
G1 X126.515 Y89.484 E.02718
G1 X127.375 Y89.592 E.02718
G1 X128.227 Y89.748 E.02718
G1 X129.07 Y89.951 E.02718
G1 X129.9 Y90.2 E.02718
G1 X130.715 Y90.495 E.02718
G1 X131.512 Y90.835 E.02718
G1 X132.289 Y91.219 E.02718
G1 X133.044 Y91.646 E.02718
G1 X133.774 Y92.113 E.02718
G1 X134.476 Y92.621 E.02718
G1 X135.149 Y93.167 E.02718
